sites/all/themes/iobytheme/img/twitter-logo-footer.svg

<svg height="26" viewBox="0 0 32 26" width="32" xmlns="http://www.w3.org/2000/svg"><path d="m154 6.04000241c-.906939 1.30667257-2.003374 2.41999284-3.289339 3.33999663.013536.18666815.020303.46666814.020303.83999996 0 1.7333433-.257188 3.4633265-.771574 5.1900036-.514381 1.7266725-1.296103 3.3833227-2.345178 4.9699997-1.04907 1.5866726-2.29779 2.9899922-3.74619 4.2099978-1.448399 1.2200061-3.194576 2.1933295-5.23858 2.9199998-2.044003.7266704-4.230107 1.0900001-6.558374 1.0900001-3.668379 0-7.025367-.9666572-10.071068-2.8999997.473776.0533335 1.001689.0799998 1.583756.0799998 3.045699 0 5.759719-.9199908 8.142133-2.7600011-1.421329-.026665-2.693735-.4566598-3.81726-1.289998s-1.895091-1.8966617-2.31472-3.1900018c.446702.0666669.859558.1000026 1.238579.1000026.582068 0 1.157359-.0733331 1.725887-.2199994-1.516082-.3066694-2.771568-1.0499954-3.766497-2.2300005s-1.492385-2.5499935-1.492385-4.1100011v-.0799993c.920478.50667 1.908624.7799993 2.964467.8200012-.893406-.5866694-1.604059-1.3533318-2.13198-2.3000005-.527922-.94667325-.791878-1.97332792-.791878-3.07999986 0-1.17333882.297797-2.25999413.8934-3.26000176 1.637911 1.9866783 3.631123 3.57666158 5.979698 4.76999912 2.348571 1.193342 4.862929 1.8566687 7.543147 1.9900025-.108293-.5066701-.16244-.99999871-.16244-1.47999932 0-1.78667767.63959-3.30999408 1.918782-4.57000297 1.279197-1.26000442 2.825711-1.88999991 4.639597-1.88999991 1.8951 0 3.492377.67999229 4.791877 2.03999926 1.475475-.27999999 2.862938-.79999356 4.162439-1.55999864-.500851 1.53334264-1.461922 2.71999602-2.883251 3.56000046 1.258889-.13333376 2.51776-.46666366 3.776649-.99999867z" fill="#3da9e0" fill-rule="evenodd" transform="translate(-122 -3)"/></svg>

<svg width="32px" height="26px" viewBox="0 0 32 26" version="1.1" xmlns="http://www.w3.org/2000/svg" xmlns:xlink="http://www.w3.org/1999/xlink">
    <!-- Generator: Sketch 48.2 (47327) - http://www.bohemiancoding.com/sketch -->
    <desc>Created with Sketch.</desc>
    <defs></defs>
    <g id="R3" stroke="none" stroke-width="1" fill="none" fill-rule="evenodd">
        <g id="ROUND-3—no-cart,-one-promo-Copy" transform="translate(-971.000000, -7382.000000)" fill="#3DA9E0">
            <g id="Footer" transform="translate(0.000000, 6840.000000)">
                <g id="Group-6">
                    <g id="Group-3" transform="translate(179.000000, 0.000000)">
                        <g id="Group" transform="translate(670.000000, 539.000000)">
                            <path d="M154,6.04000241 C153.093061,7.34667498 151.996626,8.45999525 150.710661,9.37999904 C150.724197,9.56666719 150.730964,9.84666718 150.730964,10.219999 C150.730964,11.9533423 150.473776,13.6833255 149.95939,15.4100026 C149.445009,17.1366751 148.663287,18.7933253 147.614212,20.3800023 C146.565142,21.9666749 145.316422,23.3699945 143.868022,24.5900001 C142.419623,25.8100062 140.673446,26.7833296 138.629442,27.5099999 C136.585439,28.2366703 134.399335,28.6 132.071068,28.6 C128.402689,28.6 125.045701,27.6333428 122,25.7000003 C122.473776,25.7533338 123.001689,25.7800001 123.583756,25.7800001 C126.629455,25.7800001 129.343475,24.8600093 131.725889,23.019999 C130.30456,22.993334 129.032154,22.5633392 127.908629,21.730001 C126.785104,20.8966628 126.013538,19.8333393 125.593909,18.5399992 C126.040611,18.6066661 126.453467,18.6400018 126.832488,18.6400018 C127.414556,18.6400018 127.989847,18.5666687 128.558375,18.4200024 C127.042293,18.113333 125.786807,17.370007 124.791878,16.1900019 C123.796949,15.0099968 123.299493,13.6400084 123.299493,12.0800008 L123.299493,12.0000015 C124.219971,12.5066715 125.208117,12.7800008 126.26396,12.8200027 C125.370554,12.2333333 124.659901,11.4666709 124.13198,10.5200022 C123.604058,9.57332895 123.340102,8.54667428 123.340102,7.44000234 C123.340102,6.26666352 123.637899,5.18000821 124.233502,4.18000058 C125.871413,6.16667888 127.864625,7.75666216 130.2132,8.9499997 C132.561771,10.1433417 135.076129,10.8066684 137.756347,10.9400022 C137.648054,10.4333321 137.593907,9.94000349 137.593907,9.46000288 C137.593907,7.67332521 138.233497,6.1500088 139.512689,4.88999991 C140.791886,3.62999549 142.3384,3 144.152286,3 C146.047386,3 147.644663,3.67999229 148.944163,5.03999926 C150.419638,4.75999927 151.807101,4.2400057 153.106602,3.48000062 C152.605751,5.01334326 151.64468,6.19999664 150.223351,7.04000108 C151.48224,6.90666732 152.741111,6.57333742 154,6.04000241 Z" id="Page-1"></path>
                        </g>
                    </g>
                </g>
            </g>
        </g>
    </g>
</svg>
